src/assets/icons/star.svg

<svg width="16" height="15" viewBox="0 0 16 15" fill="none" xmlns="http://www.w3.org/2000/svg">
<path fill-rule="evenodd" clip-rule="evenodd" d="M10.8101 3.83127C10.4875 3.841 10.1801 3.69443 9.98451 3.4377L7.93552 0.747908C7.4055 0.0521323 6.3128 0.23425 6.03709 1.06431L4.97165 4.27197C4.86987 4.57839 4.6264 4.81682 4.31791 4.91216L1.03898 5.92556C0.156267 6.19837 -0.00636112 7.37764 0.769558 7.87919L3.45772 9.61681C3.74765 9.80421 3.92041 10.1279 3.91473 10.4731L3.86255 13.6432C3.84783 14.5372 4.85763 15.0665 5.58442 14.5458L8.46604 12.4813C8.71795 12.3008 9.0393 12.2473 9.33609 12.3364L12.7303 13.3559C13.5866 13.6131 14.3705 12.7851 14.0669 11.9442L12.9905 8.96207C12.8733 8.63735 12.9319 8.27514 13.1454 8.00391L15.1257 5.4889C15.6973 4.76304 15.1614 3.7001 14.2379 3.72794L10.8101 3.83127Z" fill="#1A1A1A"/>
</svg>

<svg xmlns="http://www.w3.org/2000/svg" width="16" height="15" fill="none"><path fill="#1A1A1A" fill-rule="evenodd" d="M10.81 3.83a1 1 0 0 1-.83-.4L7.94.76a1.09 1.09 0 0 0-1.9.31L4.97 4.27a1 1 0 0 1-.65.64L1.04 5.93a1.09 1.09 0 0 0-.27 1.95l2.69 1.74a1 1 0 0 1 .45.85l-.05 3.17c-.01.9 1 1.43 1.72.9l2.89-2.06a1 1 0 0 1 .87-.14l3.39 1.02c.86.25 1.64-.57 1.34-1.42l-1.08-2.98a1 1 0 0 1 .16-.96l1.98-2.51c.57-.73.03-1.79-.9-1.76l-3.42.1Z" clip-rule="evenodd"/></svg>
